X: 1698
T: Maureen's Waltz
C:Bob Rummery, Sorrento, WA
B: australian traditional tunes wiki
M:3/4
L:1/8
R: Waltz
Q: 1/4=100
K:G
V:1 
Bc|"G"d4(3Bdg|b4a2|"C"g3fg2|"Am"A4AG|"D"F4A2|f4(3efe|"D7"d2de dc|"G"B4Bc|
"G"d4(3Bdg|b4a2|"C"g3fg2|"Am"A4AG|"D"F4A2|f4(3efe|"D7"d2dc AF|"G"G4G2||
"D"A4d2|a3gf2|"G"g4gb|d3cB2|"D"A4d2|a3gf2|"C"e4ce|"D7"d4dc|
"G"B3ce2|"C"e4g2|"G"g3ab2|"D"a6|"G"b2bag2|"C"c4B2|"D7"A3BA2|"G"G4z2||
% abcbook-tune_id 6342d53a71638d63f72e9287


% abcbook-boost 0
% abcbook-tablature 
% abcbook-transpose 
% abcbook-lastupdated 1665324378628
% abcbook-soundfonts 
% abcbook-repeats 1
% NFF Book 2008

